img/500.svg

<svg width="468" height="280" fill="none" xmlns="http://www.w3.org/2000/svg"><rect width="468" height="280" rx="16" fill="#0E3F96"/><path d="M197.447 91.177a20.245 20.245 0 0126.932 16.92 20.24 20.24 0 01-2.329 11.784l61.936 61.941-8.178 8.178-61.941-61.941a20.258 20.258 0 01-22.798-2.452 20.256 20.256 0 01-5.9-22.157l12.938 12.938a8.68 8.68 0 009.525 2.002 8.66 8.66 0 002.849-1.895 8.66 8.66 0 002.541-6.21 8.686 8.686 0 00-2.648-6.164l-12.932-12.95.005.006zm59.958 10.896l18.403-10.225 8.178 8.178-10.225 18.403-10.226 2.048-12.261 12.266-8.183-8.178 12.267-12.266 2.047-10.226zm-38.854 47.032l8.178 8.178-30.67 30.67a5.784 5.784 0 01-8.629-7.675l.452-.503 30.669-30.67z" fill="#fff"/></svg>

<svg width="468" height="280" viewBox="0 0 468 280" fill="none" xmlns="http://www.w3.org/2000/svg">
<rect width="468" height="280" rx="16" fill="#0E3F96"/>
<path d="M197.447 91.1774C201.305 89.8008 205.49 89.627 209.449 90.6789C213.407 91.7307 216.954 93.9588 219.619 97.0688C222.285 100.179 223.945 104.024 224.379 108.097C224.813 112.17 224.001 116.279 222.05 119.881L283.986 181.822L275.808 190L213.867 128.059C210.264 130.001 206.157 130.807 202.088 130.369C198.018 129.932 194.177 128.271 191.069 125.607C187.962 122.942 185.735 119.399 184.682 115.444C183.629 111.488 183.799 107.307 185.169 103.45L198.107 116.388C198.907 117.216 199.864 117.877 200.923 118.332C201.981 118.786 203.12 119.026 204.271 119.036C205.423 119.046 206.566 118.826 207.632 118.39C208.698 117.954 209.667 117.31 210.481 116.495C211.296 115.681 211.94 114.712 212.376 113.646C212.812 112.58 213.032 111.437 213.022 110.285C213.012 109.134 212.772 107.995 212.318 106.937C211.863 105.878 211.202 104.921 210.374 104.121L197.442 91.1716L197.447 91.1774ZM257.405 102.073L275.808 91.8483L283.986 100.026L273.761 118.429L263.535 120.477L251.274 132.743L243.091 124.565L255.358 112.299L257.405 102.073ZM218.551 149.105L226.729 157.283L196.059 187.953C195.017 188.998 193.613 189.606 192.137 189.65C190.661 189.694 189.224 189.172 188.121 188.19C187.017 187.209 186.331 185.843 186.202 184.371C186.074 182.9 186.514 181.436 187.43 180.278L187.882 179.775L218.551 149.105Z" fill="white"/>
</svg>
